X:1
T:Meet Me in the Homeland
T:Robert Harkness
T:Meet Me in the Homeland
T:Public Domain
T:Public Domain
C:Robert Harkness
Z:Public Domain
%%score 1 2
L:1/8
M:4/4
K:Bb
V:1 treble 
V:2 bass 
V:1
 [B,D]>[CE] | [DF]2 [Fd]2 [Ec]2 [Fd]2 | [Ec]2 [DB]4 [EA]>[FB] | [Ec]2 [GB]2 [FA]2 [EG]2 | %4
w: 1.~Will you|meet me in the|Home- land, Shall we|both reach Heav’n at|
w: 2.~Will you|meet me in the|glo- ry, Shall we|both to- ge- ther|
w: 3.~We are|nev- er sure of|meet- ing An- y-|where be- neath the|
w: 4.~He has|prom- ised soon to|take me Where the|King shall fill my|
 [DF]6 [B,D]>[CE] | [DF]2 [Fd]2 [Ec]2 [Fd]2 | [Ec]2 [DB]4 [DA]>[DB] | [=Ec]2 [EB]2 [EA]2 [EG]2 | %8
w: last, When the|train- ing days are|end- ed, And life’s|jour- neys all are|
w: stand ’Mid the|com- pa- ny of|saved ones, In that|blood- bought, hap- py|
w: sun, But we|look for glad re-|un- ion, When our|earth- ly life is|
w: gaze, Will your|voice with mine be|blend- ed In that|per- fect hymn of|
 [CF]6 ||"^Refrain" [B,D]>[CE] | [DF]2 [Fd]2 [Ec]2 [EF]>[EG] | [EA]2 [Ec]2 [DB]2 [FB]>[FB] | %12
w: past?||||
w: band?||||
w: done.||||
w: praise?||||
 [Ec]2 [GB]2 [FA]2 [EG]2 | [DF]6 [B,D]>[CE] | [DF]2 [Fd]2 [Ec]2 [EF]>[EG] | %15
w: |||
w: |||
w: |||
w: |||
 [EA]2 [Ec]2 [DB]2 [FA]>[EG] | [DF]2 [Fd]2 [Fd] [Ec]3 | [DB]6 |] %18
w: |||
w: |||
w: |||
w: |||
V:2
 [B,,F,]>[B,,F,] | [B,,B,]2 [D,B,]2 [F,A,]2 [F,B,]2 | [F,A,]2 [B,,B,]4 [C,F,]>[D,F,] | %3
w: ~ ~|~ ~ ~ ~|~ ~ ~ ~|
 [E,G,]2 [E,B,]2 [E,B,]2 [E,B,]2 | [B,,B,]6 [B,,F,]>[B,,F,] | [B,,B,]2 [D,B,]2 [F,A,]2 [F,B,]2 | %6
w: ~ ~ ~ ~|~ ~ ~|~ ~ ~ ~|
 [^F,A,]2 [G,B,]4 [G,C]>[G,B,] | [C,B,]2 [C,D]2 [C,C]2 [C,B,]2 | [F,A,]6 || [B,,F,]>[B,,F,] | %10
w: ~ ~ ~ ~|~ ~ ~ ~|~|Will you|
 [B,,B,]2 [D,B,]2 [F,A,]2 [F,B,]>[F,B,] | [F,C]2 [F,A,]2 [B,,B,]2 [D,B,]>[D,B,] | %12
w: meet me there? Will you|meet me there? ’Tis the|
 [E,G,]2 [E,B,]2 [E,B,]2 [E,B,]2 | [B,,B,]6 [B,,F,]>[B,,F,] | %14
w: Sav- ior bids you|come; Will you|
 [B,,B,]2 [D,B,]2 [F,A,]2 [F,A,]>[F,B,] | [F,C]2 [^F,A,]2 [G,B,]2 [D,B,]>[E,B,] | %16
w: meet me there? Will you|meet me there? He can|
 [F,B,]2 [F,B,]2 [F,B,] [F,A,]3 | [B,,B,]6 |] %18
w: take us safe- ly|home.|

